X: 40221
T: Tintown, The
R: reel
M: 4/4
K: Cmajor
G,CCG, C2EC|D3E FEDB,|G,CCG, CDEC|FDB,D C3,A,|
G,CCG, CDEC|D3E FEDB,|C3B, CDEC|FDB,D C3A||
|:Gccd e2dc|BGcG AFFA|Gccd e2dc|1 BGFD C3A:|2 BGFD C3A,||

